X:1
T:New Orleans Fizz
T:New Orleans Fizz
T:(Diminished Syncopation)
T:By PETE WENDLING & MAX KORTLANDER 
T:Copyright 1924 by Pete Wendling &amp; Max Kortlander
T:Copyright 1924 by Pete Wendling &amp; Max Kortlander
T:Copyright 1924 by Pete Wendling &amp; Max Kortlander
T:Copyright 1924 by Pete Wendling &amp; Max Kortlander
C:By Pete Wendling &
Z:Copyright 1924 by Pete Wendling & Max Kortlander
%%score { 1 | ( 2 3 ) }
L:1/8
Q:1/4=180
M:2/2
K:F
V:1 treble nm="Piano" snm="Pno."
V:2 treble 
V:3 treble 
V:1
"^Moderato"!f! (!>![_g_g']c')(!>![gg']=a c')(!>![ff']_a=b) | %1
 (!>![ee']_b)(!>![ee']g b)(!>![_e_e']_g=a) | (3(!>![dd']=f_a) (!>![dd']f a)(!>![_d_d']=e=g) | %3
!sfz! !>![ceg_bc']2 z2!sfz! z4 |:!mf!!f!"_-" z3/2 =a<[_e_e']_g/ a>[dd']=f>_a | %5
 !>![_d=e=g_d']2 z3/2 ._e/ !>!_g !>![cegc']2 z | z3/2 f<[=B=b]d/ f>[_B_b]_d>=e | %7
 [A=c_ea]2 z3/2 .=B/ !>!d [_ABd_a]2 z | z3/2 _d<[=G=g]_B/ d [A=ce=a]2 [Gg] | %9
 [FAcf]>[^F^f][Gg]>[^G^g] [Aa] [dfad']2 [cc'] | [G=Bdg]>[^G^g][Aa]>[^A^a] [=B=b] [egbe']2 [dd'] | %11
 [cegc']>[^c^c'][dd']>[^d^d'] [ee'] [ac'e'a']2 [gg'] | z3/2 =a<[_e_e']_g/ a>[dd']=f>_a | %13
 !>![_d=e=g_d']2 z3/2 ._e/ !>!_g !>![cegc']2 z | z3/2 (f<[=B=b]d/ f>[_B_b]_d>=e) | %15
 [A=c_ea]2 z3/2 .=B/ !>!d [_ABd_a]2 z | z3/2 _d<[=G=g]_B/ d [A=ce=a]2 [Gg] | %17
 [FAcf]>[^F^f][Gg]>[^G^g] [Aa] [dfad']2 [cc'] | [f=bd'f']2 [ff'][de_bd']- [debd'][cc'] [debd']2 |1 %19
 [fac'f']!f! z/!<(! !>![^G^g]<!>![Aa]!>![_B_b]/!<)! !>![=B=b]>!>![cc']!>![^c^c']>!>![dd'] :|2 %20
!<(! !>![fac'f']3/2 g/4^g/4 !>!a>c'!<)!!sfz! !arpeggio!!^![fac'f'] z z2!fine! |: %21
!mf!{c'd'e'} !>![ff']>[ee'][ff']>[=B=b] !>![cc']>[^c^c'][dd']>[^d^d'] | %22
 [e^g=be'][^d^d'][egbe'][=B=dg!courtesy!=b]- [Bdgb]3 (3_b/c'/d'/ | %23
 !>![_e_e']>[dd'][ee']>[=A=a] !>![_B_b]>[=B=b][cc']>[^c^c'] | %24
 !>![d^fad'][^c^c'][dfad'][A=c=fa]- [Acfa]3 (3g/a/b/ | %25
 !>![cc']2 ([cc']>[^F^f] [Gg]>[Aa][!courtesy!_B!courtesy!_b]>[cc']) | %26
 !>![dfad'] !>![dfad']2 !>![dfad']- [dfad']3 [^d^d'] | %27
 [e^g=be']2 [ee']>[^A^a] [=B=b]>[cc'][dd']>[^d^d'] | %28
 [ea^c'e'] [e=bd'e']2 [e_bc'=e']- [ebc'e']3 (3c'/d'/e'/ | %29
 !>![ff']>[ee'][ff']>[=B=b] !>![cc']>[^c^c'][dd']>[^d^d'] | %30
 [e^g=be'][^d^d'][egbe'][=B=dg!courtesy!=b]- [Bdgb]3 (3_b/c'/d'/ | %31
 !>![_e_e']>[dd'][ee']>[=A=a] !>![_B_b]>[=B=b][cc']>[^c^c'] | %32
 !>![d^fad'][^c^c'][dfad'][A=c=fa]- [Acfa]3 (3g/a/b/ | %33
 !>![cc']2 ([cc']>[^F^f] [Gg]>[Aa][!courtesy!_B!courtesy!_b]>[cc']) | %34
 !>![dfad'] !>![dfad']2 !>![dfad']- [dfad'](3c'/d'/c'/ =bc' | %35
 [f=bf']>d'[fbf']>d' [f_be']>d' [ebc']2 |1 %36
 !>![fac'f'] z!f! !>![cfac']2 !>![df=bd']2 !>![e_bc'e']2 :|2 !>![fac'f'] z z2 z4 || %38
!f! z3/2 =a<(!>![_e_e']_g/ a>)(!>![dd']=f>_a) | !>![_d=e=g_d']2 z3/2 ._e/ !>!_g !>![cegc']2 z | %40
 z3/2 f<(!>![=B=b]d/ f>)(!>![_B_b]_d>=e) | [A=c_ea]2 z3/2 .=B/ !>!d [_ABd_a]2 z | %42
 z3/2 _d<[=G=g]_B/ d [A=ce=a]2 [Gg] | [FAcf]>[^F^f][Gg]>[^G^g] [Aa] [dfad']2 [cc'] | %44
 [G=Bdg]>[^G^g][Aa]>[^A^a] [=B=b] [egbe']2 [dd'] | %45
 [cegc']>[^c^c'][dd']>[^d^d'] [ee'] [ac'e'a']2 [gg'] | z3/2 =a<(!>![_e_e']_g/ a>)(!>![dd']=f>_a) | %47
 !>![_d=e=g_d']2 z3/2 ._e/ !>!_g !>![cegc']2 z | z3/2 f<(!>![=B=b]d/ f>)(!>![_B_b]_d>=e) | %49
 [A=c_ea]2 z3/2 .=B/ !>!d [_ABd_a]2 z | z3/2 _d<[=G=g]_B/ d [A=ce=a]2 [Gg] | %51
 [FAcf]>[^F^f][Gg]>[^G^g] [Aa] [dfad']2 [cc'] | [f=bd'f']2 [ff'][de_bd']- [debd'][cc'] [debd']2 | %53
 !>![=g_ad'f'] !>![gad'f']2 !>!d' !^![_e=ac']4 |:!ff!"_-"!f! [cc']4 [=B=b]4 | %55
 [_B_b]3 !>![Aa]- [Aa]2 !>![_A_a]2- | [Aa]4 [Gg]4 | %57
 !>![_G_g]3 !>![Ff]- !tenuto![Ff] !>![cc']2 .=b | %58
 !>![cc'] z{/=b} !^![cc']2 .C !>![^G,D]2 !>![A,F]- | %59
 [A,F]2{/=b} !>![cc']{/b}!>![cc']- [cc']{/b} !>![cc']2 .=b | %60
 !>![cc'] z{/=b} !^![cc']2 .C !>![^G,D]2 !>![A,F]- | %61
 [A,F]4- [A,F] z/!8va(! !>![aa']<!>![bb']!>![=b=b']/ | [c'c'']4 [=b=b']4 | %63
 !>![_b_b']3 !>![aa']- [aa']2 !>![_a_a']2- | [aa']4 [gg']4 | %65
 !>![_g_g']3 !>![ff']- !tenuto![ff'] !>![c'c'']2 .[=b=b'] | %66
 !>![c'c''] z{/=b'} !^![c'c'']2!8va)!"^loco" !>!c !>![^Gd]2 !>![Af]- | %67
 [Af]2!8va(!{/=b'} !>![c'c'']{/b'}!>![c'c'']- [c'c'']{/b'} !>![c'c'']2 .[=b=b'] | %68
 !>![c'c''] z{/=b'} !^![c'c'']2!8va)! !>!c !>![^Gd]2"^loco" (!>![Af]- | %69
 [Af]>[=Gd] .[^Gc]2)!sfz! !^![_E=A]2 z2!D.C.! |] %70
V:2
 !>![_GAc_e]2 !>![GAce]2- [GAce] !>![F_A=Bd]3 | %1
 !>![=E=G_B_d]2 !>![=E=G_Bd]2- [EGBd] !>![_D_G=A=c]3 | %2
 !>![=DF_A=B]2 !>![=DFAB]2- [DFAB] !>![_D=E=G_B]3 | !>![CEG_B]2 z2[K:bass] !^!C,,2 z2 |: %4
 !>!_G,,2[K:treble] [C_E_G=A]2[K:bass] !>!=F,,2[K:treble] [=B,D=F_A]2 | %5
[K:bass] !>!=E,,2[K:treble] [_B,_D=E=G]2[K:bass] !>!_E,,2[K:treble] [=A,C_E_G]2 | %6
[K:bass] !>!=D,,2 [_A,=B,=DF]2 _D,,2 [=G,_B,_D=E]2 | !>!C,,2 [_G,=A,C_E]2 !>!=B,,,2 [=F,_G,=B,D]2 | %8
 !>!_B,,,2 [=G,_B,_D=E]2 C,,2 [G,B,CE]2 | !arpeggio![F,,C,A,]2 [A,CF]2 [C,,C,]2 [A,CF]2 | %10
 !arpeggio![G,,D,=B,]2 [G,B,F]2 G,,2 [G,B,F]2 | %11
 !arpeggio![C,,G,,E,]2 [G,_B,CE]2 [C,,C,]2 [G,B,CE]2 | %12
 !>!_G,,2[K:treble] [C_E_G=A]2[K:bass] !>!=F,,2[K:treble] [=B,D=F_A]2 | %13
[K:bass] !>!=E,,2[K:treble] [_B,_D=E=G]2[K:bass] !>!_E,,2[K:treble] [=A,C_E_G]2 | %14
[K:bass] !>!=D,,2 [_A,=B,=DF]2 _D,,2 [=G,_B,_D=E]2 | !>!C,,2 [_G,=A,C_E]2 !>!=B,,,2 [=F,_G,=B,D]2 | %16
 !>!_B,,,2 [=G,_B,_D=E]2 C,,2 [G,B,CE]2 | !arpeggio![F,,C,A,]2 [A,CF]2 [C,,C,]2 [A,CF]2 | %18
 !arpeggio![G,,D,=B,]3 !arpeggio![G,,E,_B,]- [G,,E,B,]2 !arpeggio![G,,E,B,]2 |1 %19
 !arpeggio![F,,C,A,] z z2 z4 :|2 !arpeggio!!>![F,,C,A,]2 !>![C,,C,]2 !^![F,,,F,,] z z2 |: %21
 !arpeggio![F,,C,A,]2 [A,CF]2 [C,,C,]2 [A,CF]2 | !arpeggio![E,,=B,,^G,]2 [E,G,D]2 E,,2 [E,G,D]2 | %23
 !arpeggio![_E,,_B,,=G,]2 [G,B,_E]2 [!courtesy!_B,,,!courtesy!_B,,]2 [G,B,E]2 | %24
 !arpeggio![D,,A,,^F,]2 [D,F,C]2 D,,2 [D,F,C]2 | %25
 !arpeggio![G,,E,_B,]2 [G,B,CE]2 !arpeggio![C,,B,,E,]2 [G,B,CE]2 | %26
 !arpeggio![F,,C,A,]2 [A,CF]2 !arpeggio![D,,A,,F,]2 [A,DF]2 | %27
 !arpeggio![E,,B,,^G,]2 [E,G,D]2 E,,2 [E,G,D]2 | %28
 !arpeggio![A,,E,^C]2 !arpeggio![^G,,E,=B,]2 !arpeggio![=G,,C,_B,]2 !^!C,,2 | %29
 !arpeggio![F,,C,A,]2 [A,CF]2 [C,,C,]2 [A,CF]2 | !arpeggio![E,,=B,,^G,]2 [E,G,D]2 E,,2 [E,G,D]2 | %31
 !arpeggio![_E,,_B,,=G,]2 [G,B,_E]2 [!courtesy!_B,,,!courtesy!_B,,]2 [G,B,E]2 | %32
 !arpeggio![D,,A,,^F,]2 [D,F,C]2 D,,2 [D,F,C]2 | %33
 !arpeggio![G,,E,_B,]2 [G,B,CE]2 !arpeggio![C,,B,,E,]2 [G,B,CE]2 | %34
 !arpeggio![F,,C,A,]2 [A,CF]2 !arpeggio![D,,A,,^F,]2 [A,C^F]2 | %35
 [G,,D,=B,]2 [G,B,=F]2 [C,,C,]2 [G,_B,CE]2 |1 %36
 !arpeggio!!>![F,,C,A,] z !>![A,,A,]2 !>![_A,,_A,]2 !>![G,,G,]2 :|2 %37
 !arpeggio![F,,C,A,] z[K:treble] [_E_G=Ac]2 [=D=F^G=B]2 [_D=E=G_B]2 || [C_E_G=A]6 !>![=B,DF_A]2 | %39
 [!courtesy!_B,_D=E=G]4 [=A,=C_E_G]4 |[K:bass] [_A,=B,=D=F]6 !>![=G,_B,_D=E]2 | %41
[K:bass] [_G,=A,=C_E]4 [=F,_G,=B,=D]4 | !>!_B,,,2 [=G,_B,_D=E]2 C,,2 [G,B,CE]2 | %43
 !arpeggio![F,,C,A,]2 [A,CF]2 [C,,C,]2 [A,CF]2 | !arpeggio![G,,D,=B,]2 [G,B,F]2 G,,2 [G,B,F]2 | %45
 !arpeggio![C,,G,,E,]2 [G,_B,CE]2 [C,,C,]2 [G,B,CE]2 | !>![_G,,=A,]6 !>![=F,,_A,]2 | %47
 !>![=E,,=G,]4 !>![_E,,_G,]4 | !>![=D,,=F,]6 !>![_D,,_F,]2 | !>![=C,,_E,]4 !>![=B,,,=D,]4 | %50
 [_B,,,_D,]6 [C,,E,]2 | !arpeggio![F,,C,A,]2 [A,CF]2 [C,,C,]2 [A,CF]2 | %52
 !arpeggio!!>![G,,D,=B,]3 [G,,E,_B,]- [G,,E,B,]2 [G,,E,B,]2 | %53
 !arpeggio!!>![F,,_E,A,]2 !arpeggio!!>![F,,E,A,]2 !arpeggio!!^![F,,E,A,]4 |: %54
 z2 [_G,_B,=C=E]4 [=F,=A,=B,^D]2- | [F,A,B,D] [_F,_A,_B,=D]3 [_E,=G,=A,^C]2 z2 | %56
 z2 [__E,_G,_A,=C]4 [_D,=F,=G,=B,]2- | %57
 [D,F,G,B,] [__D,_F,_G,_B,]3 [=C,F,=A,] z"^strike with\nopen hand" !^![G,,-C,-E,-G,]2 | %58
 !^![G,,C,E,]2 [G,!courtesy!_B,CE]2 C,,2 [C,E,]2 | %59
 .F,,2 z2 z2"^strike with\nopen hand" !^![G,,-C,-E,-_G,]2 | !^![G,,C,E,]2 [G,_B,CE]2 C,,2 [C,E,]2 | %61
 z2 !>!C,2 !^!F, z z2 |[K:treble] z2 [_G_A=c=e]4 [=F=A=B^d]2- | [FABd] [_F_A=A=d]3 [_E=G=A^c]2 z2 | %64
 z2 [__E_G_A=c]4 [_D=F=G=B]2- | %65
 [DFGB] [__D_F_G_B]3 [=C=F=A] z[K:bass]"^open hand" !>![G,,-C,-E,-_G,]2 | %66
 !^![G,,C,E,]2 [G,!courtesy!_B,CE]2 [C,,C,]2 [^G,CE]2 | %67
 [F,,F,]2 z2 z2"^(open hand)" !>![G,,-C,-E,-_G,]2 | !^![G,,C,E,]2 [G,B,CE]2 [C,,C,]2 [^G,CE]2 | %69
 !arpeggio!!>![F,,C,A,] z !arpeggio!!>![C,,E,]2"_D.C. al       Fine" !arpeggio!!^![F,,_E,A,]2 !fermata!z2 |] %70
V:3
 x8 | x8 | x8 | x4[K:bass] x4 |: x2[K:treble] x2[K:bass] x2[K:treble] x2 | %5
[K:bass] x2[K:treble] x2[K:bass] x2[K:treble] x2 |[K:bass] x8 | x8 | x8 | x8 | x8 | x8 | %12
 x2[K:treble] x2[K:bass] x2[K:treble] x2 |[K:bass] x2[K:treble] x2[K:bass] x2[K:treble] x2 | %14
[K:bass] x8 | x8 | x8 | x8 | x8 |1 x8 :|2 x8 |: x8 | x8 | x8 | x8 | x8 | x8 | x8 | x8 | x8 | x8 | %31
 x8 | x8 | x8 | x8 | x8 |1 x8 :|2 x2[K:treble] x6 || x8 | x8 |[K:bass] x8 |[K:bass] x8 | x8 | x8 | %44
 x8 | x8 | x8 | x8 | x8 | x8 | x8 | x8 | x8 | x8 |: x8 | x8 | x8 | x8 | x8 | x8 | x8 | %61
 F,,4- F,, x3 |[K:treble] x8 | x8 | x8 | x6[K:bass] x2 | x8 | x8 | x8 | x8 |] %70

